assets/logo-white.svg

<svg width="130" height="39" viewBox="0 0 130 39" xmlns="http://www.w3.org/2000/svg">
<path fill="white" d="M3.63192 14L0.718572 3.81818H3.07014L4.7555 10.8928H4.84002L6.6994 3.81818H8.71289L10.5673 10.9077H10.6568L12.3422 3.81818H14.6937L11.7804 14H9.68235L7.74343 7.34304H7.66389L5.72994 14H3.63192ZM16.5755 14H14.2686L17.7836 3.81818H20.5577L24.0676 14H21.7608L19.2104 6.14489H19.1309L16.5755 14ZM16.4313 9.99787H21.8801V11.6783H16.4313V9.99787ZM25.8612 3.81818L28.3221 11.554H28.4165L30.8825 3.81818H33.2688L29.7589 14H26.9847L23.4698 3.81818H25.8612ZM33.8977 3.81818H36.3089L38.6307 8.20312H38.7301L41.0518 3.81818H43.4631L39.7493 10.4006V14H37.6115V10.4006L33.8977 3.81818ZM49.46 3.81818V14H48.2271V3.81818H49.46ZM60.006 3.81818V14H58.8129L53.2646 6.00568H53.1651V14H51.9322V3.81818H53.1254L58.6935 11.8324H58.793V3.81818H60.006ZM65.6152 14H62.4732V3.81818H65.7544C66.7421 3.81818 67.5873 4.02202 68.29 4.42969C68.9926 4.83404 69.5312 5.41572 69.9057 6.17472C70.2802 6.9304 70.4675 7.83523 70.4675 8.8892C70.4675 9.94981 70.2786 10.8629 69.9007 11.6286C69.5229 12.3909 68.9727 12.9775 68.2502 13.3885C67.5276 13.7962 66.6493 14 65.6152 14ZM63.7061 12.9062H65.5357C66.3775 12.9062 67.0752 12.7438 67.6287 12.419C68.1822 12.0942 68.5949 11.6319 68.8667 11.032C69.1384 10.4321 69.2743 9.7178 69.2743 8.8892C69.2743 8.06723 69.1401 7.35961 68.8716 6.76633C68.6032 6.16974 68.2021 5.71236 67.6685 5.39418C67.1349 5.07268 66.4703 4.91193 65.6749 4.91193H63.7061V12.9062ZM79.2175 3.81818H80.4505V10.5597C80.4505 11.2557 80.2864 11.8771 79.9583 12.424C79.6335 12.9676 79.1744 13.3968 78.5811 13.7116C77.9879 14.0232 77.2918 14.179 76.4931 14.179C75.6943 14.179 74.9983 14.0232 74.405 13.7116C73.8117 13.3968 73.351 12.9676 73.0229 12.424C72.6981 11.8771 72.5357 11.2557 72.5357 10.5597V3.81818H73.7686V10.4602C73.7686 10.9574 73.878 11.3999 74.0968 11.7876C74.3155 12.1721 74.6271 12.4754 75.0314 12.6974C75.4391 12.9162 75.9263 13.0256 76.4931 13.0256C77.0598 13.0256 77.5471 12.9162 77.9547 12.6974C78.3624 12.4754 78.6739 12.1721 78.8894 11.7876C79.1081 11.3999 79.2175 10.9574 79.2175 10.4602V3.81818ZM88.4808 6.36364C88.4212 5.85985 88.1792 5.46875 87.755 5.19034C87.3307 4.91193 86.8104 4.77273 86.1939 4.77273C85.7431 4.77273 85.3487 4.84564 85.0107 4.99148C84.6759 5.13731 84.4141 5.33783 84.2251 5.59304C84.0395 5.84825 83.9467 6.13826 83.9467 6.46307C83.9467 6.73485 84.0114 6.96851 84.1406 7.16406C84.2732 7.3563 84.4422 7.51705 84.6477 7.64631C84.8532 7.77225 85.0687 7.87666 85.294 7.95952C85.5194 8.03906 85.7266 8.10369 85.9155 8.15341L86.9496 8.43182C87.2147 8.50142 87.5097 8.59754 87.8345 8.72017C88.1626 8.8428 88.4759 9.01018 88.7741 9.2223C89.0758 9.43111 89.3243 9.69957 89.5199 10.0277C89.7154 10.3558 89.8132 10.7585 89.8132 11.2358C89.8132 11.786 89.669 12.2831 89.3807 12.7273C89.0956 13.1714 88.678 13.5244 88.1278 13.7862C87.581 14.0481 86.9164 14.179 86.1342 14.179C85.4051 14.179 84.7737 14.0613 84.2401 13.826C83.7098 13.5907 83.2921 13.2625 82.9872 12.8416C82.6856 12.4207 82.5149 11.9318 82.4751 11.375H83.7479C83.781 11.7595 83.9103 12.0777 84.1357 12.3295C84.3643 12.5781 84.6527 12.7637 85.0007 12.8864C85.352 13.0057 85.7299 13.0653 86.1342 13.0653C86.6049 13.0653 87.0275 12.9891 87.402 12.8366C87.7765 12.6809 88.0732 12.4654 88.2919 12.1903C88.5107 11.9119 88.62 11.5871 88.62 11.2159C88.62 10.8778 88.5256 10.6027 88.3366 10.3906C88.1477 10.1785 87.8991 10.0062 87.5909 9.87358C87.2827 9.741 86.9496 9.625 86.5916 9.52557L85.3388 9.16761C84.5433 8.93892 83.9136 8.61245 83.4496 8.18821C82.9856 7.76397 82.7536 7.20881 82.7536 6.52273C82.7536 5.95265 82.9077 5.45549 83.2159 5.03125C83.5275 4.60369 83.9451 4.27225 84.4688 4.03693C84.9957 3.7983 85.584 3.67898 86.2337 3.67898C86.8899 3.67898 87.4732 3.79664 87.9837 4.03196C88.4941 4.26397 88.8984 4.58215 89.1967 4.98651C89.4983 5.39086 89.6574 5.8499 89.674 6.36364H88.4808ZM91.2836 4.91193V3.81818H98.9199V4.91193H95.7182V14H94.4853V4.91193H91.2836ZM100.823 14V3.81818H104.263C105.059 3.81818 105.712 3.95407 106.222 4.22585C106.732 4.49432 107.11 4.86387 107.355 5.33452C107.601 5.80516 107.723 6.34044 107.723 6.94034C107.723 7.54025 107.601 8.07221 107.355 8.53622C107.11 9.00024 106.734 9.36482 106.227 9.62997C105.72 9.89181 105.072 10.0227 104.283 10.0227H101.499V8.90909H104.243C104.787 8.90909 105.224 8.82955 105.556 8.67045C105.891 8.51136 106.132 8.28598 106.282 7.99432C106.434 7.69934 106.51 7.34801 106.51 6.94034C106.51 6.53267 106.434 6.17637 106.282 5.87145C106.129 5.56652 105.886 5.3312 105.551 5.16548C105.216 4.99645 104.774 4.91193 104.223 4.91193H102.056V14H100.823ZM105.615 9.42614L108.121 14H106.689L104.223 9.42614H105.615ZM111.011 3.81818V14H109.778V3.81818H111.011ZM113.483 14V3.81818H119.628V4.91193H114.716V8.35227H119.31V9.44602H114.716V12.9062H119.707V14H113.483ZM127.418 6.36364C127.359 5.85985 127.117 5.46875 126.692 5.19034C126.268 4.91193 125.748 4.77273 125.131 4.77273C124.681 4.77273 124.286 4.84564 123.948 4.99148C123.613 5.13731 123.352 5.33783 123.163 5.59304C122.977 5.84825 122.884 6.13826 122.884 6.46307C122.884 6.73485 122.949 6.96851 123.078 7.16406C123.211 7.3563 123.38 7.51705 123.585 7.64631C123.791 7.77225 124.006 7.87666 124.232 7.95952C124.457 8.03906 124.664 8.10369 124.853 8.15341L125.887 8.43182C126.152 8.50142 126.447 8.59754 126.772 8.72017C127.1 8.8428 127.413 9.01018 127.712 9.2223C128.013 9.43111 128.262 9.69957 128.457 10.0277C128.653 10.3558 128.751 10.7585 128.751 11.2358C128.751 11.786 128.607 12.2831 128.318 12.7273C128.033 13.1714 127.616 13.5244 127.065 13.7862C126.518 14.0481 125.854 14.179 125.072 14.179C124.343 14.179 123.711 14.0613 123.178 13.826C122.647 13.5907 122.23 13.2625 121.925 12.8416C121.623 12.4207 121.452 11.9318 121.413 11.375H122.685C122.719 11.7595 122.848 12.0777 123.073 12.3295C123.302 12.5781 123.59 12.7637 123.938 12.8864C124.29 13.0057 124.667 13.0653 125.072 13.0653C125.542 13.0653 125.965 12.9891 126.339 12.8366C126.714 12.6809 127.011 12.4654 127.229 12.1903C127.448 11.9119 127.558 11.5871 127.558 11.2159C127.558 10.8778 127.463 10.6027 127.274 10.3906C127.085 10.1785 126.837 10.0062 126.528 9.87358C126.22 9.741 125.887 9.625 125.529 9.52557L124.276 9.16761C123.481 8.93892 122.851 8.61245 122.387 8.18821C121.923 7.76397 121.691 7.20881 121.691 6.52273C121.691 5.95265 121.845 5.45549 122.153 5.03125C122.465 4.60369 122.883 4.27225 123.406 4.03693C123.933 3.7983 124.522 3.67898 125.171 3.67898C125.827 3.67898 126.411 3.79664 126.921 4.03196C127.432 4.26397 127.836 4.58215 128.134 4.98651C128.436 5.39086 128.595 5.8499 128.612 6.36364H127.418Z"/>
<path d="M1.31818 32.5455C1.30682 31.9167 1.40909 31.411 1.625 31.0284C1.84091 30.6458 2.12121 30.3674 2.46591 30.1932C2.81439 30.0189 3.18182 29.9318 3.56818 29.9318C3.95455 29.9318 4.30682 30.017 4.625 30.1875C4.94697 30.3542 5.31439 30.6174 5.72727 30.9773C6.00758 31.2197 6.23106 31.3902 6.39773 31.4886C6.56818 31.5871 6.75379 31.6364 6.95455 31.6364C7.2803 31.6364 7.53788 31.5189 7.72727 31.2841C7.91667 31.0455 8.00758 30.7008 8 30.25H9.22727C9.23864 30.8788 9.13636 31.3845 8.92045 31.767C8.70833 32.1496 8.42803 32.428 8.07955 32.6023C7.73106 32.7765 7.36364 32.8636 6.97727 32.8636C6.59091 32.8636 6.23864 32.7803 5.92045 32.6136C5.60227 32.4432 5.23485 32.178 4.81818 31.8182C4.54167 31.5758 4.31818 31.4053 4.14773 31.3068C3.97727 31.2083 3.79167 31.1591 3.59091 31.1591C3.28409 31.1591 3.0303 31.267 2.82955 31.483C2.63258 31.6951 2.53788 32.0492 2.54545 32.5455H1.31818ZM6.90506 32.5455C6.89369 31.9167 6.99597 31.411 7.21187 31.0284C7.42778 30.6458 7.70809 30.3674 8.05278 30.1932C8.40127 30.0189 8.76869 29.9318 9.15506 29.9318C9.54142 29.9318 9.89369 30.017 10.2119 30.1875C10.5338 30.3542 10.9013 30.6174 11.3141 30.9773C11.5945 31.2197 11.8179 31.3902 11.9846 31.4886C12.1551 31.5871 12.3407 31.6364 12.5414 31.6364C12.8672 31.6364 13.1248 31.5189 13.3141 31.2841C13.5035 31.0455 13.5945 30.7008 13.5869 30.25H14.8141C14.8255 30.8788 14.7232 31.3845 14.5073 31.767C14.2952 32.1496 14.0149 32.428 13.6664 32.6023C13.3179 32.7765 12.9505 32.8636 12.5641 32.8636C12.1778 32.8636 11.8255 32.7803 11.5073 32.6136C11.1891 32.4432 10.8217 32.178 10.4051 31.8182C10.1285 31.5758 9.90506 31.4053 9.7346 31.3068C9.56415 31.2083 9.37854 31.1591 9.17778 31.1591C8.87097 31.1591 8.61718 31.267 8.41642 31.483C8.21945 31.6951 8.12475 32.0492 8.13233 32.5455H6.90506ZM12.4919 32.5455C12.4806 31.9167 12.5828 31.411 12.7987 31.0284C13.0147 30.6458 13.295 30.3674 13.6397 30.1932C13.9881 30.0189 14.3556 29.9318 14.7419 29.9318C15.1283 29.9318 15.4806 30.017 15.7987 30.1875C16.1207 30.3542 16.4881 30.6174 16.901 30.9773C17.1813 31.2197 17.4048 31.3902 17.5715 31.4886C17.7419 31.5871 17.9275 31.6364 18.1283 31.6364C18.4541 31.6364 18.7116 31.5189 18.901 31.2841C19.0904 31.0455 19.1813 30.7008 19.1737 30.25H20.401C20.4124 30.8788 20.3101 31.3845 20.0942 31.767C19.8821 32.1496 19.6018 32.428 19.2533 32.6023C18.9048 32.7765 18.5374 32.8636 18.151 32.8636C17.7647 32.8636 17.4124 32.7803 17.0942 32.6136C16.776 32.4432 16.4086 32.178 15.9919 31.8182C15.7154 31.5758 15.4919 31.4053 15.3215 31.3068C15.151 31.2083 14.9654 31.1591 14.7647 31.1591C14.4578 31.1591 14.2041 31.267 14.0033 31.483C13.8063 31.6951 13.7116 32.0492 13.7192 32.5455H12.4919ZM18.0788 32.5455C18.0674 31.9167 18.1697 31.411 18.3856 31.0284C18.6015 30.6458 18.8818 30.3674 19.2265 30.1932C19.575 30.0189 19.9424 29.9318 20.3288 29.9318C20.7152 29.9318 21.0674 30.017 21.3856 30.1875C21.7076 30.3542 22.075 30.6174 22.4879 30.9773C22.7682 31.2197 22.9917 31.3902 23.1584 31.4886C23.3288 31.5871 23.5144 31.6364 23.7152 31.6364C24.0409 31.6364 24.2985 31.5189 24.4879 31.2841C24.6773 31.0455 24.7682 30.7008 24.7606 30.25H25.9879C25.9993 30.8788 25.897 31.3845 25.6811 31.767C25.469 32.1496 25.1887 32.428 24.8402 32.6023C24.4917 32.7765 24.1243 32.8636 23.7379 32.8636C23.3515 32.8636 22.9993 32.7803 22.6811 32.6136C22.3629 32.4432 21.9955 32.178 21.5788 31.8182C21.3023 31.5758 21.0788 31.4053 20.9084 31.3068C20.7379 31.2083 20.5523 31.1591 20.3515 31.1591C20.0447 31.1591 19.7909 31.267 19.5902 31.483C19.3932 31.6951 19.2985 32.0492 19.3061 32.5455H18.0788ZM23.6657 32.5455C23.6543 31.9167 23.7566 31.411 23.9725 31.0284C24.1884 30.6458 24.4687 30.3674 24.8134 30.1932C25.1619 30.0189 25.5293 29.9318 25.9157 29.9318C26.302 29.9318 26.6543 30.017 26.9725 30.1875C27.2945 30.3542 27.6619 30.6174 28.0748 30.9773C28.3551 31.2197 28.5786 31.3902 28.7452 31.4886C28.9157 31.5871 29.1013 31.6364 29.302 31.6364C29.6278 31.6364 29.8854 31.5189 30.0748 31.2841C30.2642 31.0455 30.3551 30.7008 30.3475 30.25H31.5748C31.5861 30.8788 31.4839 31.3845 31.268 31.767C31.0558 32.1496 30.7755 32.428 30.427 32.6023C30.0786 32.7765 29.7111 32.8636 29.3248 32.8636C28.9384 32.8636 28.5861 32.7803 28.268 32.6136C27.9498 32.4432 27.5823 32.178 27.1657 31.8182C26.8892 31.5758 26.6657 31.4053 26.4952 31.3068C26.3248 31.2083 26.1392 31.1591 25.9384 31.1591C25.6316 31.1591 25.3778 31.267 25.177 31.483C24.9801 31.6951 24.8854 32.0492 24.893 32.5455H23.6657ZM1.31818 38.5455C1.30682 37.9167 1.40909 37.411 1.625 37.0284C1.84091 36.6458 2.12121 36.3674 2.46591 36.1932C2.81439 36.0189 3.18182 35.9318 3.56818 35.9318C3.95455 35.9318 4.30682 36.017 4.625 36.1875C4.94697 36.3542 5.31439 36.6174 5.72727 36.9773C6.00758 37.2197 6.23106 37.3902 6.39773 37.4886C6.56818 37.5871 6.75379 37.6364 6.95455 37.6364C7.2803 37.6364 7.53788 37.5189 7.72727 37.2841C7.91667 37.0455 8.00758 36.7008 8 36.25H9.22727C9.23864 36.8788 9.13636 37.3845 8.92045 37.767C8.70833 38.1496 8.42803 38.428 8.07955 38.6023C7.73106 38.7765 7.36364 38.8636 6.97727 38.8636C6.59091 38.8636 6.23864 38.7803 5.92045 38.6136C5.60227 38.4432 5.23485 38.178 4.81818 37.8182C4.54167 37.5758 4.31818 37.4053 4.14773 37.3068C3.97727 37.2083 3.79167 37.1591 3.59091 37.1591C3.28409 37.1591 3.0303 37.267 2.82955 37.483C2.63258 37.6951 2.53788 38.0492 2.54545 38.5455H1.31818ZM6.90506 38.5455C6.89369 37.9167 6.99597 37.411 7.21187 37.0284C7.42778 36.6458 7.70809 36.3674 8.05278 36.1932C8.40127 36.0189 8.76869 35.9318 9.15506 35.9318C9.54142 35.9318 9.89369 36.017 10.2119 36.1875C10.5338 36.3542 10.9013 36.6174 11.3141 36.9773C11.5945 37.2197 11.8179 37.3902 11.9846 37.4886C12.1551 37.5871 12.3407 37.6364 12.5414 37.6364C12.8672 37.6364 13.1248 37.5189 13.3141 37.2841C13.5035 37.0455 13.5945 36.7008 13.5869 36.25H14.8141C14.8255 36.8788 14.7232 37.3845 14.5073 37.767C14.2952 38.1496 14.0149 38.428 13.6664 38.6023C13.3179 38.7765 12.9505 38.8636 12.5641 38.8636C12.1778 38.8636 11.8255 38.7803 11.5073 38.6136C11.1891 38.4432 10.8217 38.178 10.4051 37.8182C10.1285 37.5758 9.90506 37.4053 9.7346 37.3068C9.56415 37.2083 9.37854 37.1591 9.17778 37.1591C8.87097 37.1591 8.61718 37.267 8.41642 37.483C8.21945 37.6951 8.12475 38.0492 8.13233 38.5455H6.90506ZM12.4919 38.5455C12.4806 37.9167 12.5828 37.411 12.7987 37.0284C13.0147 36.6458 13.295 36.3674 13.6397 36.1932C13.9881 36.0189 14.3556 35.9318 14.7419 35.9318C15.1283 35.9318 15.4806 36.017 15.7987 36.1875C16.1207 36.3542 16.4881 36.6174 16.901 36.9773C17.1813 37.2197 17.4048 37.3902 17.5715 37.4886C17.7419 37.5871 17.9275 37.6364 18.1283 37.6364C18.4541 37.6364 18.7116 37.5189 18.901 37.2841C19.0904 37.0455 19.1813 36.7008 19.1737 36.25H20.401C20.4124 36.8788 20.3101 37.3845 20.0942 37.767C19.8821 38.1496 19.6018 38.428 19.2533 38.6023C18.9048 38.7765 18.5374 38.8636 18.151 38.8636C17.7647 38.8636 17.4124 38.7803 17.0942 38.6136C16.776 38.4432 16.4086 38.178 15.9919 37.8182C15.7154 37.5758 15.4919 37.4053 15.3215 37.3068C15.151 37.2083 14.9654 37.1591 14.7647 37.1591C14.4578 37.1591 14.2041 37.267 14.0033 37.483C13.8063 37.6951 13.7116 38.0492 13.7192 38.5455H12.4919ZM18.0788 38.5455C18.0674 37.9167 18.1697 37.411 18.3856 37.0284C18.6015 36.6458 18.8818 36.3674 19.2265 36.1932C19.575 36.0189 19.9424 35.9318 20.3288 35.9318C20.7152 35.9318 21.0674 36.017 21.3856 36.1875C21.7076 36.3542 22.075 36.6174 22.4879 36.9773C22.7682 37.2197 22.9917 37.3902 23.1584 37.4886C23.3288 37.5871 23.5144 37.6364 23.7152 37.6364C24.0409 37.6364 24.2985 37.5189 24.4879 37.2841C24.6773 37.0455 24.7682 36.7008 24.7606 36.25H25.9879C25.9993 36.8788 25.897 37.3845 25.6811 37.767C25.469 38.1496 25.1887 38.428 24.8402 38.6023C24.4917 38.7765 24.1243 38.8636 23.7379 38.8636C23.3515 38.8636 22.9993 38.7803 22.6811 38.6136C22.3629 38.4432 21.9955 38.178 21.5788 37.8182C21.3023 37.5758 21.0788 37.4053 20.9084 37.3068C20.7379 37.2083 20.5523 37.1591 20.3515 37.1591C20.0447 37.1591 19.7909 37.267 19.5902 37.483C19.3932 37.6951 19.2985 38.0492 19.3061 38.5455H18.0788ZM23.6657 38.5455C23.6543 37.9167 23.7566 37.411 23.9725 37.0284C24.1884 36.6458 24.4687 36.3674 24.8134 36.1932C25.1619 36.0189 25.5293 35.9318 25.9157 35.9318C26.302 35.9318 26.6543 36.017 26.9725 36.1875C27.2945 36.3542 27.6619 36.6174 28.0748 36.9773C28.3551 37.2197 28.5786 37.3902 28.7452 37.4886C28.9157 37.5871 29.1013 37.6364 29.302 37.6364C29.6278 37.6364 29.8854 37.5189 30.0748 37.2841C30.2642 37.0455 30.3551 36.7008 30.3475 36.25H31.5748C31.5861 36.8788 31.4839 37.3845 31.268 37.767C31.0558 38.1496 30.7755 38.428 30.427 38.6023C30.0786 38.7765 29.7111 38.8636 29.3248 38.8636C28.9384 38.8636 28.5861 38.7803 28.268 38.6136C27.9498 38.4432 27.5823 38.178 27.1657 37.8182C26.8892 37.5758 26.6657 37.4053 26.4952 37.3068C26.3248 37.2083 26.1392 37.1591 25.9384 37.1591C25.6316 37.1591 25.3778 37.267 25.177 37.483C24.9801 37.6951 24.8854 38.0492 24.893 38.5455H23.6657Z" fill="#084CCF"/>
</svg>

<svg xmlns="http://www.w3.org/2000/svg" width="130" height="39"><path fill="#fff" d="M3.632 14 .719 3.818H3.07l1.685 7.075h.085L6.7 3.818h2.013l1.854 7.09h.09l1.685-7.09h2.352L11.78 14H9.682L7.743 7.343h-.08L5.73 14zm12.944 0h-2.307l3.515-10.182h2.774L24.068 14H21.76l-2.55-7.855h-.08zm-.145-4.002h5.45v1.68h-5.45zm9.43-6.18 2.461 7.736h.095l2.465-7.736h2.387L29.759 14h-2.774L23.47 3.818zm8.037 0h2.41l2.323 4.385h.1l2.32-4.385h2.412l-3.714 6.583V14h-2.138v-3.6zm15.562 0V14h-1.233V3.818zm10.546 0V14h-1.193l-5.548-7.994h-.1V14h-1.233V3.818h1.193l5.569 8.014h.099V3.818zM65.616 14h-3.143V3.818h3.281q1.482 0 2.536.612a4 4 0 0 1 1.616 1.745q.561 1.133.561 2.714 0 1.59-.566 2.74a4.04 4.04 0 0 1-1.65 1.76q-1.085.61-2.636.611m-1.91-1.094h1.83q1.263 0 2.093-.487a3 3 0 0 0 1.238-1.387q.407-.9.407-2.143 0-1.233-.402-2.123a2.97 2.97 0 0 0-1.204-1.372q-.8-.482-1.993-.482h-1.969zm15.511-9.088h1.234v6.742q0 1.044-.493 1.864a3.45 3.45 0 0 1-1.377 1.288q-.89.467-2.088.467-1.199 0-2.088-.467a3.5 3.5 0 0 1-1.382-1.288q-.487-.82-.487-1.864V3.818h1.233v6.642q0 .746.328 1.328.328.576.934.91.612.328 1.462.328t1.462-.329a2.3 2.3 0 0 0 .934-.91q.33-.581.329-1.327zm9.264 2.546a1.56 1.56 0 0 0-.726-1.174q-.637-.417-1.561-.417-.675 0-1.183.218a1.9 1.9 0 0 0-.786.602 1.44 1.44 0 0 0-.278.87q0 .408.194.701.198.288.507.482.307.189.646.314.338.12.621.193l1.035.279q.398.105.885.288.491.184.94.502.451.315.745.806.293.491.293 1.208a2.7 2.7 0 0 1-.432 1.491q-.428.666-1.253 1.06-.82.392-1.994.392-1.093 0-1.894-.353-.795-.353-1.253-.984a2.8 2.8 0 0 1-.512-1.467h1.273q.05.577.388.954a2.1 2.1 0 0 0 .865.557q.527.18 1.133.18.706 0 1.268-.23.561-.232.89-.646.328-.417.328-.974 0-.507-.283-.825a2.1 2.1 0 0 0-.746-.517 8 8 0 0 0-1-.348l-1.252-.358q-1.193-.344-1.89-.98-.695-.637-.695-1.665 0-.856.462-1.492.468-.641 1.253-.994a4.2 4.2 0 0 1 1.765-.358q.984 0 1.75.353.765.348 1.213.955.451.606.477 1.377zm2.803-1.452V3.818h7.636v1.094h-3.202V14h-1.233V4.912zm9.54 9.088V3.818h3.44q1.194 0 1.959.408.765.402 1.133 1.109.368.705.368 1.605t-.368 1.596-1.128 1.094q-.76.393-1.944.393h-2.784V8.909h2.744q.816 0 1.313-.239a1.5 1.5 0 0 0 .726-.676q.228-.442.228-1.054 0-.611-.228-1.069a1.56 1.56 0 0 0-.731-.706q-.502-.253-1.328-.253h-2.167V14zm4.792-4.574L108.121 14h-1.432l-2.466-4.574zm5.396-5.608V14h-1.233V3.818zM113.483 14V3.818h6.145v1.094h-4.912v3.44h4.594v1.094h-4.594v3.46h4.991V14zm13.935-7.636a1.56 1.56 0 0 0-.726-1.174q-.636-.417-1.561-.417-.675 0-1.183.218a1.9 1.9 0 0 0-.785.602 1.44 1.44 0 0 0-.279.87q0 .408.194.701.2.288.507.482.309.189.647.314.338.12.621.193l1.034.279q.398.105.885.288.492.184.94.502.452.315.745.806.294.491.294 1.208 0 .825-.433 1.491-.427.666-1.253 1.06-.82.392-1.993.392-1.094 0-1.894-.353-.796-.353-1.253-.984a2.8 2.8 0 0 1-.512-1.467h1.272q.05.577.388.954.343.375.865.557.527.18 1.134.18.705 0 1.267-.23.563-.232.89-.646a1.53 1.53 0 0 0 .329-.974q0-.507-.284-.825a2.1 2.1 0 0 0-.746-.517 8 8 0 0 0-.999-.348l-1.253-.358q-1.193-.344-1.889-.98-.696-.637-.696-1.665 0-.856.462-1.492.468-.641 1.253-.994a4.2 4.2 0 0 1 1.765-.358q.985 0 1.75.353.766.348 1.213.955.453.606.478 1.377z"/><path fill="#084CCF" d="M1.318 32.545q-.017-.942.307-1.517.324-.573.84-.835a2.4 2.4 0 0 1 1.103-.261q.58 0 1.057.256.483.25 1.102.79.42.363.67.51.256.149.558.148.488 0 .772-.352.284-.357.273-1.034h1.227q.018.943-.307 1.517-.318.574-.84.835a2.4 2.4 0 0 1-1.103.262q-.579 0-1.057-.25-.477-.256-1.102-.796a4.6 4.6 0 0 0-.67-.511 1.1 1.1 0 0 0-.557-.148 1 1 0 0 0-.761.324q-.295.318-.285 1.062zm5.587 0q-.017-.942.307-1.517.324-.573.84-.835a2.4 2.4 0 0 1 1.103-.261q.58 0 1.057.256.483.25 1.102.79.42.363.67.51.257.149.557.148.49 0 .773-.352.284-.357.273-1.034h1.227q.017.943-.307 1.517-.318.574-.84.835a2.4 2.4 0 0 1-1.103.262q-.58 0-1.057-.25-.477-.256-1.102-.796a4.6 4.6 0 0 0-.67-.511 1.1 1.1 0 0 0-.557-.148 1 1 0 0 0-.762.324q-.295.318-.284 1.062zm5.587 0q-.018-.942.307-1.517.324-.573.84-.835a2.4 2.4 0 0 1 1.103-.261q.58 0 1.057.256.484.25 1.102.79.42.363.67.51.255.149.557.148.49 0 .773-.352.284-.357.273-1.034H20.4q.017.943-.307 1.517-.318.574-.84.835a2.4 2.4 0 0 1-1.103.262q-.58 0-1.057-.25-.477-.256-1.102-.796a4.6 4.6 0 0 0-.67-.511 1.1 1.1 0 0 0-.557-.148 1 1 0 0 0-.762.324q-.295.318-.284 1.062zm5.587 0q-.018-.942.307-1.517.324-.573.84-.835a2.4 2.4 0 0 1 1.103-.261q.579 0 1.057.256.483.25 1.102.79.42.363.67.51.255.149.557.148.49 0 .773-.352.284-.357.273-1.034h1.227q.017.943-.307 1.517-.318.574-.84.835a2.4 2.4 0 0 1-1.103.262q-.58 0-1.057-.25-.478-.256-1.102-.796a4.6 4.6 0 0 0-.67-.511 1.1 1.1 0 0 0-.557-.148 1 1 0 0 0-.762.324q-.295.318-.284 1.062zm5.587 0q-.018-.942.306-1.517.325-.573.841-.835a2.4 2.4 0 0 1 1.103-.261q.579 0 1.056.256.483.25 1.103.79.42.363.67.51.255.149.557.148.489 0 .773-.352.284-.357.273-1.034h1.227q.017.943-.307 1.517-.318.574-.841.835a2.4 2.4 0 0 1-1.102.262q-.58 0-1.057-.25-.477-.256-1.102-.796a4.6 4.6 0 0 0-.67-.511 1.1 1.1 0 0 0-.558-.148 1 1 0 0 0-.761.324q-.296.318-.284 1.062zm-22.348 6q-.017-.942.307-1.517.324-.573.84-.835a2.4 2.4 0 0 1 1.103-.261q.58 0 1.057.255.483.25 1.102.79.42.364.67.512.256.147.558.147.488 0 .772-.352.284-.358.273-1.034h1.227q.018.944-.307 1.517-.318.574-.84.835a2.4 2.4 0 0 1-1.103.262q-.579 0-1.057-.25-.477-.256-1.102-.796a4.6 4.6 0 0 0-.67-.511 1.1 1.1 0 0 0-.557-.148 1 1 0 0 0-.761.324q-.295.318-.285 1.063zm5.587 0q-.017-.942.307-1.517.324-.573.84-.835a2.4 2.4 0 0 1 1.103-.261q.58 0 1.057.255.483.25 1.102.79.42.364.67.512.257.147.557.147.49 0 .773-.352.284-.358.273-1.034h1.227q.017.944-.307 1.517-.318.574-.84.835a2.4 2.4 0 0 1-1.103.262q-.58 0-1.057-.25-.477-.256-1.102-.796a4.6 4.6 0 0 0-.67-.511 1.1 1.1 0 0 0-.557-.148 1 1 0 0 0-.762.324q-.295.318-.284 1.063zm5.587 0q-.018-.942.307-1.517.324-.573.84-.835a2.4 2.4 0 0 1 1.103-.261q.58 0 1.057.255.484.25 1.102.79.42.364.67.512.255.147.557.147.49 0 .773-.352.284-.358.273-1.034H20.4q.017.944-.307 1.517-.318.574-.84.835a2.4 2.4 0 0 1-1.103.262q-.58 0-1.057-.25-.477-.256-1.102-.796a4.6 4.6 0 0 0-.67-.511 1.1 1.1 0 0 0-.557-.148 1 1 0 0 0-.762.324q-.295.318-.284 1.063zm5.587 0q-.018-.942.307-1.517.324-.573.84-.835a2.4 2.4 0 0 1 1.103-.261q.579 0 1.057.255.483.25 1.102.79.42.364.67.512.255.147.557.147.49 0 .773-.352.284-.358.273-1.034h1.227q.017.944-.307 1.517-.318.574-.84.835a2.4 2.4 0 0 1-1.103.262q-.58 0-1.057-.25-.478-.256-1.102-.796a4.6 4.6 0 0 0-.67-.511 1.1 1.1 0 0 0-.557-.148 1 1 0 0 0-.762.324q-.295.318-.284 1.063zm5.587 0q-.018-.942.306-1.517.325-.573.841-.835a2.4 2.4 0 0 1 1.103-.261q.579 0 1.056.255.483.25 1.103.79.42.364.67.512.255.147.557.147.489 0 .773-.352.284-.358.273-1.034h1.227q.017.944-.307 1.517-.318.574-.841.835a2.4 2.4 0 0 1-1.102.262q-.58 0-1.057-.25-.477-.256-1.102-.796a4.6 4.6 0 0 0-.67-.511 1.1 1.1 0 0 0-.558-.148 1 1 0 0 0-.761.324q-.296.318-.284 1.063z"/></svg>
